db/seeds/files/mood_filters/innocent.svg

<svg viewBox="0 0 51.49 38.47" xmlns="http://www.w3.org/2000/svg"><path d="m50.42 12.83a39.34 39.34 0 0 0 -5.63.37 28.45 28.45 0 0 0 -3.62-10.47 1.05 1.05 0 0 0 -1.27-.48 30.43 30.43 0 0 0 -8 4 29.7 29.7 0 0 0 -5.47-6 1.07 1.07 0 0 0 -1.37 0 29.7 29.7 0 0 0 -5.47 6 30.43 30.43 0 0 0 -8-4 1.05 1.05 0 0 0 -1.27.48 28.6 28.6 0 0 0 -3.62 10.5 39.34 39.34 0 0 0 -5.63-.37 1.06 1.06 0 0 0 -1.07 1.07c0 7.48 2.24 13.34 6.84 17.92 4.42 4.39 10.78 6.62 18.9 6.62s14.51-2.26 18.91-6.66c4.6-4.58 6.84-10.44 6.84-17.92a1.06 1.06 0 0 0 -1.07-1.06zm-10.68-8.3a26.18 26.18 0 0 1 2.94 9 22.24 22.24 0 0 0 -6.61 2.41 24.36 24.36 0 0 0 -3-8 28 28 0 0 1 6.67-3.41zm-28 0a28.16 28.16 0 0 1 6.68 3.47 24.36 24.36 0 0 0 -3 8 22.24 22.24 0 0 0 -6.61-2.41 26.19 26.19 0 0 1 2.95-9.08zm-3.37 25.78c-4-4-6-8.89-6.19-15.33 5.44.12 9.58 1.19 12.93 3.3a23.71 23.71 0 0 0 0 2.92 21.17 21.17 0 0 0 7.39 15c-6.01-.57-10.74-2.52-14.13-5.89zm17.38 5.76a19.42 19.42 0 0 1 -8.55-15c-.36-6.74 2.8-13.47 8.55-18.58 5.81 5.11 8.91 11.84 8.55 18.58a19.42 19.42 0 0 1 -8.55 15zm17.38-5.77c-3.39 3.37-8.13 5.32-14.08 5.84a21.17 21.17 0 0 0 7.39-15 23.71 23.71 0 0 0 0-2.92c3.35-2.11 7.49-3.18 12.93-3.3-.24 6.5-2.22 11.39-6.24 15.39z" fill="#9d9d9c"/></svg>

<svg xmlns="http://www.w3.org/2000/svg" viewBox="0 0 51.49 38.47"><defs><style>.cls-1{fill:#9d9d9c;}</style></defs><title>Innocent</title><g id="Layer_2" data-name="Layer 2"><g id="Слой_1" data-name="Слой 1"><g id="item-Page"><g id="Mobile-Icons"><g id="Group-Copy-16"><g id="_11" data-name=" 11"><path id="Shape" class="cls-1" d="M50.42,12.83a39.34,39.34,0,0,0-5.63.37A28.45,28.45,0,0,0,41.17,2.73a1.05,1.05,0,0,0-1.27-.48,30.43,30.43,0,0,0-8,4,29.7,29.7,0,0,0-5.47-6,1.07,1.07,0,0,0-1.37,0,29.7,29.7,0,0,0-5.47,6,30.43,30.43,0,0,0-8-4,1.05,1.05,0,0,0-1.27.48A28.6,28.6,0,0,0,6.7,13.23a39.34,39.34,0,0,0-5.63-.37A1.06,1.06,0,0,0,0,13.93c0,7.48,2.24,13.34,6.84,17.92,4.42,4.39,10.78,6.62,18.9,6.62s14.51-2.26,18.91-6.66c4.6-4.58,6.84-10.44,6.84-17.92A1.06,1.06,0,0,0,50.42,12.83ZM39.74,4.53a26.18,26.18,0,0,1,2.94,9,22.24,22.24,0,0,0-6.61,2.41,24.36,24.36,0,0,0-3-8A28,28,0,0,1,39.74,4.53Zm-28,0A28.16,28.16,0,0,1,18.42,8a24.36,24.36,0,0,0-3,8,22.24,22.24,0,0,0-6.61-2.41,26.19,26.19,0,0,1,2.95-9.08ZM8.37,30.31c-4-4-6-8.89-6.19-15.33,5.44.12,9.58,1.19,12.93,3.3a23.71,23.71,0,0,0,0,2.92,21.17,21.17,0,0,0,7.39,15C16.49,35.63,11.76,33.68,8.37,30.31Zm17.38,5.76a19.42,19.42,0,0,1-8.55-15C16.84,14.33,20,7.6,25.75,2.49c5.81,5.11,8.91,11.84,8.55,18.58A19.42,19.42,0,0,1,25.75,36.07ZM43.13,30.3c-3.39,3.37-8.13,5.32-14.08,5.84a21.17,21.17,0,0,0,7.39-15,23.71,23.71,0,0,0,0-2.92c3.35-2.11,7.49-3.18,12.93-3.3-.24,6.5-2.22,11.39-6.24,15.39Z"/></g></g></g></g></g></g></svg>
